X: 20
T: Ranelagh Rant
R: jig
M: 12/8
L: 1/8
Z: 2011 John Chambers <jc:trillian.mit.edu>
B: William Randall eds "Twenty Four Country Dances", London 1771, p.12
K: C
|: [c3E3G,3] [c3E3G,3] cef gec | g3 G3 GBc dBG |\
   c3 C3 | cef gfe | dag^fef | g3 G3 :|
|: A^ce gfe fag fed | GBd fed egf edc |\
   Afd Bge Aag fed | ege dcB c3 C3 :|
% - - - - - - - - - - - - - - - - - - - - - - - - -
%%begintext align
%% Cast off 1 Cu. turn your Partner cast off
%% another Cu. turn your Partner lead up to the
%% top cast off Right and Left at top
%%endtext
% - - - - - - - - - - - - - - - - - - - - - - - - -

%%sep 1 1 500
%%sep 1 1 500
